static/img/logos/saas/saas_arkivit.svg

<svg xmlns="http://www.w3.org/2000/svg" xmlns:xlink="http://www.w3.org/1999/xlink" width="89" height="45" viewBox="0 0 89 45"><defs><clipPath id="a"><rect width="59" height="20" transform="translate(15.213 13)" fill="#fff"/></clipPath></defs><g transform="translate(-0.213)"><rect width="89" height="45" transform="translate(0.213)" fill="#e7eef2"/><g clip-path="url(#a)"><g transform="translate(15.213 14.348)"><path d="M59,8.1A2.11,2.11,0,0,0,57.89,6.24L46.4.053a.447.447,0,0,0-.659.393V16.278A1.027,1.027,0,0,0,46.767,17.3H56.888A2.111,2.111,0,0,0,59,15.194Z" fill="#d6e2e8"/><path d="M45.6,0H2.112A2.111,2.111,0,0,0,0,2.11V15.194A2.111,2.111,0,0,0,2.112,17.3H45.6a2.111,2.111,0,0,0,2.112-2.11V2.11A2.111,2.111,0,0,0,45.6,0Z" fill="#393d52"/><path d="M6.546,5.177,4.028,12.42h2.8l.21-.907H9.022l.224.907h2.784L9.47,5.177ZM7.5,9.81l.5-2.2h.042l.5,2.2Z" fill="#fff"/><path d="M14.967,8.01V7.326H12.491V12.42h2.476V10.257a.913.913,0,0,1,.965-.823A1.32,1.32,0,0,1,16.7,9.7V7.229a2.369,2.369,0,0,0-1.245.251A1.84,1.84,0,0,0,14.967,8.01Z" fill="#fff"/><path d="M23.709,7.326H20.786L19.834,9.2h-.056V4.619h-2.49v7.8h2.49V10.536h.056L20.87,12.42h2.923l-1.972-2.6Z" fill="#fff"/><path d="M26.856,7.326h-2.49V12.42h2.49Z" fill="#fff"/><path d="M25.625,4.549a1.241,1.241,0,0,0-1.357,1.186c0,.712.5,1.186,1.357,1.186.811,0,1.357-.433,1.357-1.186A1.225,1.225,0,0,0,25.625,4.549Z" fill="#fff"/><path d="M30.619,9.74h-.07l-.643-2.414H27.22l2.252,5.094h2.252l2.21-5.094H31.248Z" fill="#fff"/><path d="M37,5.177H34.339v7.229H37Z" fill="#fff"/><path d="M37.5,5.177V7.522h1.441v4.9H41.6v-4.9H43.04V5.177Z" fill="#fff"/></g></g></g></svg>

<svg xmlns="http://www.w3.org/2000/svg" xmlns:xlink="http://www.w3.org/1999/xlink" width="89" height="45" viewBox="0 0 89 45"><defs><clipPath id="a"><path fill="#fff" d="M15.21 13h59v20h-59z"/></clipPath></defs><g transform="translate(-.213)"><path fill="#e7eef2" d="M.21 0h89v45h-89z"/><g clip-path="url(#a)"><g transform="translate(15.213 14.348)"><path fill="#d6e2e8" d="M59 8.1a2.1 2.1 0 0 0-1.11-1.86L46.4.05a.45.45 0 0 0-.66.4v15.83a1.03 1.03 0 0 0 1.03 1.02h10.12A2.1 2.1 0 0 0 59 15.2Z"/><path fill="#393d52" d="M45.6 0H2.11A2.1 2.1 0 0 0 0 2.11v13.08a2.1 2.1 0 0 0 2.11 2.11H45.6a2.1 2.1 0 0 0 2.11-2.11V2.11A2.1 2.1 0 0 0 45.6 0"/><path fill="#fff" d="m6.55 5.18-2.52 7.24h2.8l.2-.9h2l.22.9h2.78L9.47 5.18ZM7.5 9.8 8 7.6h.04l.5 2.2Zm7.47-1.79v-.68h-2.48v5.09h2.48v-2.16a.9.9 0 0 1 .96-.83 1.3 1.3 0 0 1 .77.27V7.23a2.4 2.4 0 0 0-1.25.25 2 2 0 0 0-.48.53m8.73-.68h-2.9l-.96 1.87h-.05V4.62h-2.5v7.8h2.5v-1.88h.05l1.04 1.88h2.92l-1.97-2.6Zm3.16 0h-2.5v5.09h2.5Zm-1.23-2.78a1.24 1.24 0 0 0-1.36 1.19c0 .7.5 1.18 1.36 1.18.8 0 1.35-.43 1.35-1.18a1.23 1.23 0 0 0-1.36-1.2m5 5.2h-.07l-.64-2.41h-2.69l2.25 5.09h2.25l2.21-5.1h-2.68ZM37 5.18h-2.66v7.23H37Zm.5 0v2.34h1.44v4.9h2.66v-4.9h1.44V5.18Z"/></g></g></g></svg>
